lib/brands/icons/reddit.svg

<svg xmlns="http://www.w3.org/2000/svg" fill="none" aria-hidden="true" viewBox="0 0 48 48"><g id="reddit-Icon"><path id="Path" fill="#FC471E" d="M24 3C12.4172 3 3 12.4172 3 24C3 35.5828 12.4172 45 24 45C35.5828 45 45 35.5828 45 24C45 12.4172 35.5828 3 24 3Z"/><path id="Subtract" fill="white" fill-rule="evenodd" d="M20.0193 8.90951C20.0066 8.98984 20 9.07226 20 9.15626C20 10.0043 20.6716 10.6918 21.5 10.6918C22.3284 10.6918 23 10.0043 23 9.15626C23 8.30819 22.3284 7.6207 21.5 7.6207C21.1309 7.6207 20.7929 7.7572 20.5315 7.98359L16.6362 7L15.2283 12.7651C13.3554 12.8913 11.671 13.4719 10.4003 14.3485C10.0395 13.9863 9.54524 13.7629 9 13.7629C7.89543 13.7629 7 14.6796 7 15.8103C7 16.5973 7.43366 17.2805 8.06967 17.6232C8.02372 17.8674 8 18.1166 8 18.3696C8 21.4792 11.5817 24 16 24C20.4183 24 24 21.4792 24 18.3696C24 18.1166 23.9763 17.8674 23.9303 17.6232C24.5663 17.2805 25 16.5973 25 15.8103C25 14.6796 24.1046 13.7629 23 13.7629C22.4548 13.7629 21.9605 13.9863 21.5997 14.3485C20.2153 13.3935 18.3399 12.7897 16.2647 12.7423L17.3638 8.24143L20.0193 8.90951ZM12.5 18.8815C13.3284 18.8815 14 18.194 14 17.3459C14 16.4978 13.3284 15.8103 12.5 15.8103C11.6716 15.8103 11 16.4978 11 17.3459C11 18.194 11.6716 18.8815 12.5 18.8815ZM19.5 18.8815C20.3284 18.8815 21 18.194 21 17.3459C21 16.4978 20.3284 15.8103 19.5 15.8103C18.6716 15.8103 18 16.4978 18 17.3459C18 18.194 18.6716 18.8815 19.5 18.8815ZM12.7773 20.503C12.5476 20.3462 12.2372 20.4097 12.084 20.6449C11.9308 20.8802 11.9929 21.198 12.2226 21.3548C13.3107 22.0973 14.6554 22.4686 16 22.4686C17.3446 22.4686 18.6893 22.0973 19.7773 21.3548C20.0071 21.198 20.0692 20.8802 19.916 20.6449C19.7628 20.4097 19.4524 20.3462 19.2226 20.503C18.3025 21.1309 17.1513 21.4449 16 21.4449C15.3173 21.4449 14.6345 21.3345 14 21.1137C13.5646 20.9621 13.1518 20.7585 12.7773 20.503Z" clip-rule="evenodd"/></g></svg>

<svg xmlns="http://www.w3.org/2000/svg" fill="none" aria-hidden="true" viewBox="0 0 48 48"><path fill="#FC471E" d="M24 3C12.417 3 3 12.417 3 24s9.417 21 21 21 21-9.417 21-21S35.583 3 24 3Z"/><path fill="#fff" fill-rule="evenodd" d="M20.02 8.91a1.58 1.58 0 0 0-.02.246c0 .848.672 1.536 1.5 1.536s1.5-.688 1.5-1.536c0-.848-.672-1.535-1.5-1.535-.37 0-.707.136-.968.363L16.636 7l-1.408 5.765c-1.873.126-3.557.707-4.828 1.583a1.97 1.97 0 0 0-1.4-.585c-1.105 0-2 .917-2 2.047 0 .787.434 1.47 1.07 1.813-.046.244-.07.494-.07.747C8 21.48 11.582 24 16 24s8-2.52 8-5.63c0-.253-.024-.503-.07-.747A2.054 2.054 0 0 0 25 15.81c0-1.13-.895-2.047-2-2.047a1.97 1.97 0 0 0-1.4.585c-1.385-.955-3.26-1.558-5.335-1.606l1.099-4.5 2.655.668Zm-7.52 9.97c.828 0 1.5-.687 1.5-1.535 0-.848-.672-1.536-1.5-1.536s-1.5.688-1.5 1.536c0 .848.672 1.535 1.5 1.535Zm7 0c.828 0 1.5-.687 1.5-1.535 0-.848-.672-1.536-1.5-1.536s-1.5.688-1.5 1.536c0 .848.672 1.535 1.5 1.535Zm-6.723 1.622a.493.493 0 0 0-.693.142.52.52 0 0 0 .139.71c1.088.742 2.432 1.114 3.777 1.114 1.345 0 2.69-.372 3.777-1.114a.52.52 0 0 0 .139-.71.493.493 0 0 0-.693-.142c-.92.628-2.072.942-3.223.942-.683 0-1.366-.11-2-.331a5.204 5.204 0 0 1-1.223-.611Z" clip-rule="evenodd"/></svg>
